X: 1655
T: Annie's Favourite
R: hornpipe
M: 4/4
K: Gmajor
G2 BG AB (3cBA|defa gfdc|BABd cBAG|FGAF DE (3FED|
G2 BG ABcA|defa gfdc|BABd cADF|1 A2 GF G2 (3DEF:|2 A2 GF G2 (3def||
gfga gfdf|g2bg afde|f2fg af (3gfe|fde^c dcAF|
G2 BG ABcA|defa gfdc|BABd cADF|1 AGGF G2 (3def:|2 A2 GF G2 (3DEF||

